X:1
T:The Lady and the Farmer's Son
M:3/2
L:1/4
K:G
 G E D| G2 E2 D B,| D3 D G B| d2 B2 A G| A3 G G B| d2 B2 A G| A2 G2 E D|\
 G2 E2 D/2 B,3/2| D2 z||
